src/assets/svg/sass-logo.svg

<svg width="78" height="59" viewBox="0 0 78 59" fill="none" xmlns="http://www.w3.org/2000/svg">
<path d="M67.1461 33.8795C64.419 33.8948 62.0574 34.5559 60.0768 35.5399C59.3455 34.0793 58.6141 32.8032 58.4923 31.85C58.3551 30.743 58.1875 30.0665 58.3551 28.7443C58.5227 27.4221 59.2845 25.5464 59.2845 25.3927C59.2693 25.2543 59.1169 24.5778 57.5476 24.5624C55.9784 24.5471 54.6224 24.8699 54.47 25.285C54.3177 25.7001 54.013 26.6534 53.8149 27.6374C53.5407 29.0826 50.6763 34.2023 49.0461 36.8929C48.5129 35.8474 48.0558 34.9249 47.9644 34.187C47.8273 33.08 47.6597 32.4035 47.8273 31.0813C47.9949 29.7591 48.7566 27.8834 48.7566 27.7296C48.7414 27.5912 48.5891 26.9147 47.0198 26.8994C45.4505 26.884 44.0945 27.2069 43.9422 27.622C43.7898 28.0371 43.6222 29.0211 43.287 29.9743C42.9671 30.9275 39.1581 39.4758 38.1678 41.7052C37.6651 42.8429 37.2232 43.75 36.9033 44.365C36.5833 44.9799 36.888 44.4111 36.8576 44.4726C36.5833 44.9953 36.431 45.2874 36.431 45.2874V45.3028C36.2177 45.6872 35.9891 46.0562 35.8825 46.0562C35.8063 46.0562 35.6539 45.0261 35.9129 43.6116C36.4767 40.6443 37.8479 36.0165 37.8326 35.8474C37.8326 35.7705 38.0916 34.9557 36.949 34.5406C35.8368 34.1255 35.4406 34.8173 35.3492 34.8173C35.2578 34.8173 35.1816 35.0633 35.1816 35.0633C35.1816 35.0633 36.4157 29.8513 32.8201 29.8513C30.5652 29.8513 27.4571 32.3266 25.9183 34.5867C24.9432 35.1248 22.8712 36.2625 20.6772 37.4771C19.8393 37.9384 18.9708 38.4304 18.1481 38.8762L17.9805 38.6917C13.6231 34.0025 5.56342 30.6815 5.8986 24.3779C6.02049 22.0871 6.81275 16.0449 21.3781 8.72655C33.3076 2.73044 42.8604 4.37553 44.5211 8.03469C46.8827 13.2621 39.4172 22.9788 27.0153 24.3779C22.2922 24.916 19.8088 23.0711 19.1841 22.3792C18.529 21.6566 18.4376 21.6259 18.1938 21.7642C17.7977 21.9795 18.0415 22.6252 18.1938 23.0096C18.5595 23.9782 20.083 25.7001 22.6731 26.5611C24.9432 27.3145 30.489 27.7296 37.1927 25.1159C44.7039 22.1794 50.5697 14.0308 48.8481 7.21984C47.096 0.285875 35.6996 -1.98957 24.928 1.86946C18.5138 4.17566 11.5663 7.77332 6.56898 12.4933C0.627051 18.0897 -0.317563 22.9788 0.0785652 25.0083C1.46501 32.2497 11.353 36.9698 15.3143 40.4598C15.1162 40.5674 14.9334 40.675 14.7658 40.7673C12.7851 41.7513 5.24347 45.7333 3.35424 49.946C1.22124 54.7121 3.68943 58.1406 5.33488 58.6019C10.4236 60.0317 15.6342 57.4642 18.4528 53.2361C21.2562 49.0081 20.921 43.5194 19.626 41.0133L19.5803 40.921L21.1343 39.9986C22.1399 39.399 23.1302 38.8455 23.9986 38.3689C23.5111 39.7064 23.1607 41.29 22.9778 43.5962C22.7645 46.3022 23.8615 49.8076 25.3089 51.1913C25.9488 51.7909 26.7106 51.8063 27.1829 51.8063C28.8588 51.8063 29.6206 50.4072 30.4586 48.7314C31.4946 46.6865 32.4087 44.3188 32.4087 44.3188C32.4087 44.3188 31.2661 50.7301 34.3894 50.7301C35.5321 50.7301 36.6747 49.2387 37.1927 48.47V48.4854C37.1927 48.4854 37.2232 48.4392 37.2842 48.3316C37.406 48.1471 37.467 48.0395 37.467 48.0395V48.0088C37.9241 47.2093 38.9449 45.3797 40.4684 42.3509C42.4338 38.4457 44.3231 33.5566 44.3231 33.5566C44.3231 33.5566 44.5059 34.7558 45.0696 36.7238C45.4048 37.8922 46.1361 39.1683 46.6998 40.4137C46.2428 41.0594 45.9685 41.4284 45.9685 41.4284L45.9837 41.4438C45.6181 41.9358 45.2067 42.4585 44.7801 42.9812C43.2261 44.8569 41.3673 46.994 41.1236 47.609C40.8341 48.3316 40.895 48.8697 41.4587 49.3002C41.8701 49.6077 42.6014 49.6692 43.3784 49.6077C44.7801 49.5155 45.7552 49.1618 46.2428 48.9466C47.0045 48.6699 47.873 48.2547 48.7109 47.6398C50.2345 46.502 51.1639 44.8877 51.0725 42.7353C51.0268 41.5514 50.6459 40.3829 50.1736 39.276C50.3107 39.0761 50.4478 38.8762 50.5849 38.661C52.9922 35.1094 54.8509 31.2043 54.8509 31.2043C54.8509 31.2043 55.0338 32.4035 55.5975 34.3714C55.887 35.3708 56.4659 36.4624 56.9839 37.5386C54.729 39.399 53.3121 41.5514 52.8246 42.9659C51.9257 45.5796 52.6265 46.7634 53.952 47.0402C54.5462 47.1632 55.3994 46.8864 56.0393 46.6097C56.8316 46.3483 57.7914 45.9024 58.6751 45.2413C60.1987 44.1036 61.6613 42.52 61.5851 40.3829C61.5394 39.399 61.2804 38.4304 60.93 37.5079C62.8497 36.7084 65.3331 36.2472 68.4869 36.6315C75.2668 37.431 76.6075 41.7052 76.3485 43.4886C76.0895 45.2721 74.6726 46.256 74.2003 46.5635C73.728 46.8557 73.5756 46.9633 73.6213 47.1785C73.6823 47.5014 73.8956 47.486 74.3069 47.4245C74.8706 47.3323 77.8721 45.9639 77.994 42.6738C78.1768 38.4457 74.2003 33.8333 67.1461 33.8795ZM14.8572 51.6679C12.6176 54.1432 9.46376 55.0811 8.12302 54.2816C6.67563 53.436 7.23935 49.7922 9.99701 47.1631C11.6729 45.5642 13.8516 44.0882 15.2838 43.1811C15.6037 42.9812 16.0913 42.6891 16.6702 42.3355C16.7617 42.274 16.8226 42.2433 16.8226 42.2433C16.9293 42.1818 17.0511 42.1049 17.173 42.028C18.1938 45.7794 17.2187 49.0696 14.8572 51.6679ZM31.2356 40.4291C30.4586 42.3509 28.8131 47.2861 27.8228 47.0094C26.9696 46.7788 26.4516 43.0427 27.6552 39.3528C28.2646 37.4925 29.5597 35.2785 30.3214 34.4176C31.5555 33.0339 32.8963 32.5726 33.2315 33.1415C33.6276 33.8795 31.7231 39.2298 31.2356 40.4291ZM44.7497 46.9479C44.4145 47.117 44.1098 47.24 43.9726 47.1478C43.866 47.0863 44.1098 46.8557 44.1098 46.8557C44.1098 46.8557 45.8009 45.0261 46.4713 44.1805C46.8522 43.6885 47.3093 43.1196 47.7968 42.4739V42.6584C47.7968 44.8723 45.6943 46.3483 44.7497 46.9479ZM55.1709 44.5495C54.9271 44.365 54.9576 43.7961 55.7803 42.0126C56.1003 41.3054 56.8316 40.1216 58.0961 38.9992C58.2485 39.4604 58.3399 39.9063 58.3247 40.3214C58.3094 43.0889 56.3593 44.119 55.1709 44.5495Z" fill="#CF649A"/>
</svg>

<svg width="78" height="59" fill="none" xmlns="http://www.w3.org/2000/svg"><path d="M67.146 33.88a15.95 15.95 0 0 0-7.07 1.66c-.73-1.46-1.462-2.737-1.584-3.69-.137-1.107-.304-1.784-.137-3.106.168-1.322.93-3.198.93-3.351-.016-.139-.168-.815-1.737-.83-1.57-.016-2.926.307-3.078.722a17.798 17.798 0 0 0-.655 2.352c-.274 1.446-3.139 6.565-4.769 9.256-.533-1.046-.99-1.968-1.082-2.706-.137-1.107-.304-1.783-.137-3.106.168-1.322.93-3.198.93-3.351-.016-.139-.168-.815-1.737-.83-1.57-.016-2.926.307-3.078.722-.152.415-.32 1.4-.655 2.352-.32.953-4.129 9.502-5.12 11.731a47.78 47.78 0 0 1-1.264 2.66c-.32.615-.015.046-.045.108-.275.522-.427.814-.427.814v.016c-.213.384-.442.753-.548.753-.077 0-.23-1.03.03-2.444.564-2.968 1.935-7.596 1.92-7.765 0-.077.259-.891-.884-1.306-1.112-.415-1.508.276-1.6.276-.091 0-.167.246-.167.246s1.234-5.212-2.362-5.212c-2.255 0-5.363 2.476-6.902 4.736-.975.538-3.047 1.675-5.24 2.89-.839.461-1.707.953-2.53 1.4l-.168-.185c-4.357-4.69-12.417-8.01-12.081-14.314.121-2.29.914-8.333 15.48-15.651C33.307 2.73 42.86 4.376 44.52 8.035c2.362 5.227-5.104 14.944-17.506 16.343-4.723.538-7.206-1.307-7.83-1.999-.656-.722-.747-.753-.991-.615-.396.216-.152.861 0 1.246.366.968 1.889 2.69 4.48 3.551 2.27.753 7.815 1.169 14.519-1.445C44.703 22.179 50.57 14.03 48.848 7.22 47.096.286 35.7-1.99 24.928 1.87 18.514 4.175 11.566 7.772 6.569 12.492.627 18.09-.318 22.98.079 25.008 1.465 32.25 11.353 36.97 15.314 40.46c-.198.107-.38.215-.548.307-1.98.984-9.523 4.966-11.412 9.179-2.133 4.766.335 8.195 1.98 8.656 5.09 1.43 10.3-1.138 13.119-5.366 2.803-4.228 2.468-9.717 1.173-12.223l-.046-.092 1.554-.922A92.536 92.536 0 0 1 24 38.369c-.488 1.337-.838 2.921-1.021 5.227-.213 2.706.883 6.212 2.33 7.595.64.6 1.403.615 1.875.615 1.676 0 2.438-1.399 3.276-3.075 1.036-2.044 1.95-4.412 1.95-4.412s-1.143 6.411 1.98 6.411c1.143 0 2.286-1.491 2.804-2.26v.015s.03-.046.091-.153c.122-.185.183-.293.183-.293v-.03c.457-.8 1.478-2.63 3.001-5.658 1.966-3.905 3.855-8.794 3.855-8.794s.183 1.199.747 3.167c.335 1.168 1.066 2.444 1.63 3.69-.457.645-.732 1.014-.732 1.014l.016.016a43.64 43.64 0 0 1-1.204 1.537c-1.554 1.876-3.413 4.013-3.656 4.628-.29.723-.229 1.26.335 1.691.411.308 1.142.37 1.92.308 1.401-.092 2.376-.446 2.864-.661a9.89 9.89 0 0 0 2.468-1.307c1.523-1.138 2.453-2.752 2.361-4.905-.045-1.184-.426-2.352-.898-3.459.137-.2.274-.4.41-.615 2.408-3.552 4.267-7.457 4.267-7.457s.183 1.2.746 3.167c.29 1 .869 2.091 1.387 3.168-2.255 1.86-3.672 4.012-4.16 5.427-.898 2.614-.197 3.797 1.128 4.074.594.123 1.447-.154 2.087-.43a9.421 9.421 0 0 0 2.636-1.369c1.524-1.137 2.986-2.721 2.91-4.858-.046-.984-.305-1.953-.655-2.875 1.92-.8 4.403-1.26 7.557-.877 6.78.8 8.12 5.074 7.862 6.858-.26 1.783-1.676 2.767-2.149 3.075-.472.292-.624.4-.579.614.061.323.275.308.686.247.564-.093 3.565-1.461 3.687-4.751.183-4.228-3.794-8.84-10.848-8.794zM14.857 51.668c-2.24 2.475-5.393 3.413-6.734 2.614-1.447-.846-.884-4.49 1.874-7.119 1.676-1.599 3.855-3.075 5.287-3.982.32-.2.807-.492 1.386-.845.092-.062.153-.093.153-.093.106-.061.228-.138.35-.215 1.02 3.751.046 7.042-2.316 9.64zm16.379-11.239c-.777 1.922-2.423 6.857-3.413 6.58-.853-.23-1.371-3.966-.168-7.656.61-1.86 1.905-4.075 2.666-4.935 1.234-1.384 2.575-1.845 2.91-1.276.397.737-1.508 6.088-1.995 7.287zm13.514 6.519c-.336.169-.64.292-.777.2-.107-.062.137-.292.137-.292s1.69-1.83 2.361-2.675c.381-.492.838-1.061 1.326-1.707v.184c0 2.214-2.103 3.69-3.047 4.29zm10.42-2.398c-.243-.185-.212-.754.61-2.537.32-.708 1.052-1.891 2.316-3.014.153.461.244.907.229 1.322-.016 2.768-1.966 3.798-3.154 4.229z" fill="#CF649A"/></svg>
